X: 31591
T: Palmer's Gate
R: reel
M: 4/4
K: Amajor
d|:cFFG ABcA|B2 cB AFF2|A3B cBAB|cefe cBBd|
c2 FG ABcA|BdcB AFEF|ABce fecB|ABGA F2 Bd:|
|:cffe fece|a2 ge fecB|A3B cBAB|cefe cBBd|
cffe fece|a2 ge fecB|ABce fecB|ABGA F3 B:|

